src/assets/icons/farm.svg

<svg viewBox="0 0 41 40" fill="none" xmlns="http://www.w3.org/2000/svg">
    <path d="M36.2744 39.823C33.6701 39.823 31.0657 39.823 28.4633 39.823C28.4555 34.7668 28.4476 29.7107 28.4359 24.6523C28.4319 23.3025 28.2985 23.1498 27.0836 23.1498C22.3048 23.1454 17.5279 23.1476 12.749 23.1498C11.4026 23.1498 11.3026 23.2649 11.3006 24.7629C11.2927 29.7837 11.2849 34.8022 11.277 39.823C8.6727 39.823 6.06836 39.823 3.46598 39.823C3.29131 39.2609 2.97141 38.7011 2.96749 38.1368C2.92627 33.3706 2.93805 28.6043 2.95375 23.838C2.95571 23.3755 3.02637 22.8821 3.17945 22.4572C4.72988 18.1557 6.29406 13.8585 7.89356 9.57901C8.0486 9.16743 8.42345 8.74258 8.78849 8.56556C12.2407 6.88166 15.7085 5.23315 19.1902 3.62448C19.5513 3.45852 20.0812 3.48286 20.4482 3.65103C23.9023 5.23979 27.3427 6.86395 30.7674 8.53016C31.1599 8.72046 31.5681 9.16743 31.735 9.60777C33.3502 13.8806 34.9222 18.1734 36.4864 22.4683C36.6551 22.9308 36.7788 23.4508 36.7807 23.9442C36.8023 28.7105 36.8102 33.4768 36.7709 38.2431C36.765 38.7719 36.4471 39.2963 36.2744 39.823ZM19.8967 9.87994C18.4326 9.87994 16.9705 9.89764 15.5064 9.8733C14.8058 9.86224 14.4957 10.1986 14.4996 10.9841C14.5114 13.146 14.5153 15.31 14.4976 17.4719C14.4917 18.2685 14.7979 18.5894 15.4946 18.5871C18.4208 18.5716 21.347 18.5716 24.2732 18.5871C24.9974 18.5916 25.2369 18.2021 25.229 17.4321C25.2074 15.3056 25.2074 13.1792 25.229 11.0527C25.2369 10.2185 24.9444 9.85339 24.1869 9.87109C22.7581 9.90207 21.3274 9.87773 19.8967 9.87994Z" fill="#8C1821"/>
    <path d="M11.2772 39.823C11.2851 34.8022 11.291 29.7837 11.3008 24.7629C11.3027 23.2649 11.4028 23.1498 12.7492 23.1498C17.528 23.1476 22.3049 23.1476 27.0838 23.1498C28.2987 23.1498 28.4321 23.3025 28.436 24.6523C28.4478 29.7084 28.4537 34.7646 28.4635 39.823C27.8119 39.823 27.1623 39.823 26.5107 39.823C24.3166 37.5615 22.1224 35.3023 19.8694 32.9789C17.6163 35.3001 15.4241 37.5615 13.23 39.823C12.5784 39.823 11.9288 39.823 11.2772 39.823ZM27.0308 38.0926C27.0308 33.8529 27.0308 29.8788 27.0308 25.6834C24.9446 27.8143 22.986 29.8147 20.9547 31.888C22.982 33.9592 24.9407 35.9595 27.0308 38.0926ZM18.7841 31.8902C16.7391 29.8058 14.7824 27.8099 12.7236 25.71C12.7236 29.9098 12.7236 33.8994 12.7236 38.0749C14.7883 35.9661 16.7332 33.9835 18.7841 31.8902ZM25.7748 24.7364C21.7436 24.7364 17.9461 24.7364 13.9561 24.7364C16.0149 26.8385 17.9284 28.7946 19.8733 30.7794C21.8457 28.7592 23.7396 26.8208 25.7748 24.7364Z" fill="#A97C50"/>
    <path d="M39.3981 22.6498C38.3638 23.1211 38.1538 23.0458 37.7123 21.8554C36.1088 17.5361 34.5113 13.2124 32.9412 8.87756C32.639 8.04114 32.1935 7.51893 31.432 7.17153C27.8837 5.55179 24.3707 3.83027 20.8105 2.23708C20.2473 1.98483 19.4387 1.99589 18.8735 2.25036C15.2859 3.86125 11.7199 5.5363 8.18528 7.2888C7.60632 7.57646 7.02539 8.25578 6.77418 8.91518C5.16683 13.1128 3.65172 17.3568 2.10717 21.5854C2.03259 21.789 1.96587 21.9948 1.88736 22.1961C1.67344 22.7427 1.33784 23.2605 0.800096 22.8555C0.550849 22.6675 0.435057 21.9948 0.499822 21.5921C0.601876 20.957 0.906075 20.364 1.12981 19.7555C2.53698 15.8986 3.96573 12.0507 5.34543 8.18055C5.77327 6.97902 6.46017 6.18021 7.52389 5.69119C11.1586 4.01614 14.7835 2.31232 18.3985 0.584153C19.3936 0.108411 20.3179 0.108411 21.311 0.579728C24.9594 2.31453 28.6177 4.01835 32.2798 5.71332C33.2729 6.17357 33.9284 6.93255 34.3347 8.05442C35.8537 12.2542 37.4022 16.443 38.9487 20.6317C39.0684 20.9548 39.247 21.2469 39.3981 21.5544C39.3981 21.9151 39.3981 22.2824 39.3981 22.6498Z" fill="#939598"/>
    <path d="M18.0234 29.7305L18.0193 32.2044L20.0839 32.2087L20.088 29.7348L18.0234 29.7305Z" fill="#A97C50"/>
    <path d="M16.9894 28.7432L16.9854 31.217L19.05 31.2213L19.0541 28.7475L16.9894 28.7432Z" fill="#A97C50"/>
    <path d="M15.9559 27.6386L15.9518 30.1124L18.0164 30.1167L18.0205 27.6429L15.9559 27.6386Z" fill="#A97C50"/>
    <path d="M14.9204 26.518L14.9163 28.9919L16.981 28.9962L16.985 26.5223L14.9204 26.518Z" fill="#A97C50"/>
    <path d="M13.8863 25.2788L13.8822 27.7526L15.9468 27.7569L15.9509 25.2831L13.8863 25.2788Z" fill="#A97C50"/>
    <path d="M12.7256 24.3377L12.7216 26.8116L14.9138 26.8162L14.9178 24.3423L12.7256 24.3377Z" fill="#A97C50"/>
    <path d="M0.0039063 20.6466L-6.10352e-05 23.1204L2.19214 23.1252L2.1961 20.6513L0.0039063 20.6466Z" fill="#939598"/>
    <path d="M1.10253 17.4755L1.09845 19.9494L3.29065 19.954L3.29473 17.4801L1.10253 17.4755Z" fill="#939598"/>
    <path d="M1.84392 15.887L1.83984 18.3608L4.03204 18.3654L4.03612 15.8915L1.84392 15.887Z" fill="#939598"/>
    <path d="M2.50878 14.2271L2.5047 16.701L4.6969 16.7056L4.70098 14.2317L2.50878 14.2271Z" fill="#939598"/>
    <path d="M3.06798 12.3091L3.0639 14.783L5.2561 14.7876L5.26018 12.3137L3.06798 12.3091Z" fill="#939598"/>
    <path d="M3.60655 10.5391L3.60248 13.0129L5.79468 13.0175L5.79875 10.5437L3.60655 10.5391Z" fill="#939598"/>
    <path d="M4.32616 8.72951L4.32208 11.2034L6.51428 11.208L6.51836 8.7341L4.32616 8.72951Z" fill="#939598"/>
    <path d="M5.15099 7.26034L5.14691 9.73421L7.33911 9.7388L7.34319 7.26493L5.15099 7.26034Z" fill="#939598"/>
    <path d="M5.80278 5.81751L5.79871 8.29137L7.99091 8.29596L7.99498 5.8221L5.80278 5.81751Z" fill="#939598"/>
    <path d="M6.90013 5.12845L6.89606 7.60231L9.08826 7.6069L9.09233 5.13304L6.90013 5.12845Z" fill="#939598"/>
    <path d="M8.28319 4.31821L8.27911 6.79207L10.4713 6.79666L10.4754 4.3228L8.28319 4.31821Z" fill="#939598"/>
    <path d="M9.61345 3.88776L9.60938 6.36162L11.8016 6.36621L11.8056 3.89235L9.61345 3.88776Z" fill="#939598"/>
    <path d="M11.0231 3.07873L11.019 5.5526L13.2112 5.55719L13.2153 3.08333L11.0231 3.07873Z" fill="#939598"/>
    <path d="M12.3069 2.47903L12.3029 4.9529L14.4951 4.95749L14.4991 2.48363L12.3069 2.47903Z" fill="#939598"/>
    <path d="M13.7174 1.70001L13.7133 4.17387L15.9055 4.17846L15.9096 1.7046L13.7174 1.70001Z" fill="#939598"/>
    <path d="M14.9405 1.23909L14.9364 3.71295L17.1286 3.71754L17.1327 1.24368L14.9405 1.23909Z" fill="#939598"/>
    <path d="M16.2971 0.599944L16.293 3.07381L18.4852 3.0784L18.4893 0.604535L16.2971 0.599944Z" fill="#939598"/>
    <path d="M17.9198 -0.000381878L17.9158 2.47348L20.108 2.47807L20.112 0.00420913L17.9198 -0.000381878Z" fill="#939598"/>
    <path d="M19.8686 0.221695L19.8645 2.69556L22.0567 2.70015L22.0608 0.226286L19.8686 0.221695Z" fill="#939598"/>
    <path d="M21.0917 0.882445L21.0876 3.35631L23.2798 3.3609L23.2839 0.887036L21.0917 0.882445Z" fill="#939598"/>
    <path d="M20.5693 3.96909L20.5652 6.44295L22.7574 6.44754L22.7615 3.97368L20.5693 3.96909Z" fill="#660F19"/>
    <path d="M21.9002 4.77902L21.8961 7.25288L24.0883 7.25747L24.0924 4.78361L21.9002 4.77902Z" fill="#660F19"/>
    <path d="M23.2868 5.55763L23.2827 8.03149L25.4749 8.03609L25.479 5.56222L23.2868 5.55763Z" fill="#660F19"/>
    <path d="M24.8029 6.02135L24.7988 8.49521L26.991 8.4998L26.9951 6.02594L24.8029 6.02135Z" fill="#660F19"/>
    <path d="M26.6741 6.7973L26.67 9.27116L28.8622 9.27575L28.8663 6.80189L26.6741 6.7973Z" fill="#660F19"/>
    <path d="M28.3833 7.60664L28.3793 10.0805L30.5715 10.0851L30.5756 7.61124L28.3833 7.60664Z" fill="#660F19"/>
    <path d="M29.7448 8.49859L29.7407 10.9725L31.9329 10.977L31.937 8.50318L29.7448 8.49859Z" fill="#660F19"/>
    <path d="M30.3695 10.2106L30.3654 12.6844L32.5576 12.689L32.5617 10.2152L30.3695 10.2106Z" fill="#660F19"/>
    <path d="M31.0126 11.4498L31.0085 13.9236L33.2007 13.9282L33.2048 11.4544L31.0126 11.4498Z" fill="#660F19"/>
    <path d="M31.8066 13.1995L31.8026 15.6734L33.9948 15.6779L33.9988 13.2041L31.8066 13.1995Z" fill="#660F19"/>
    <path d="M32.5174 15.2708L32.5133 17.7446L34.7055 17.7492L34.7096 15.2754L32.5174 15.2708Z" fill="#660F19"/>
    <path d="M33.209 17.3472L33.205 19.8211L35.3972 19.8257L35.4012 17.3518L33.209 17.3472Z" fill="#660F19"/>
    <path d="M34.0008 19.5971L33.9968 22.0709L36.189 22.0755L36.193 19.6017L34.0008 19.5971Z" fill="#660F19"/>
    <path d="M34.8339 21.6673L34.8045 39.8186L36.9948 39.8252L37.0242 21.6717L34.8339 21.6673Z" fill="#660F19"/>
    <path d="M22.6083 1.23927L22.6042 3.71313L24.7964 3.71773L24.8005 1.24386L22.6083 1.23927Z" fill="#939598"/>
    <path d="M23.7053 2.12158L23.7012 4.59544L25.8934 4.60003L25.8975 2.12617L23.7053 2.12158Z" fill="#939598"/>
    <path d="M25.4083 2.47812L25.4042 4.95198L27.5964 4.95657L27.6005 2.48271L25.4083 2.47812Z" fill="#939598"/>
    <path d="M26.8188 3.3387L26.8147 5.81256L29.0069 5.81715L29.011 3.34329L26.8188 3.3387Z" fill="#939598"/>
    <path d="M28.1742 3.96898L28.1702 6.44284L30.3624 6.44743L30.3664 3.97357L28.1742 3.96898Z" fill="#939598"/>
    <path d="M29.7436 4.77791L29.7396 7.25177L31.9318 7.25636L31.9358 4.7825L29.7436 4.77791Z" fill="#939598"/>
    <path d="M31.419 5.55685L31.4149 8.03072L33.6071 8.03531L33.6112 5.56145L31.419 5.55685Z" fill="#939598"/>
    <path d="M32.5184 6.79703L32.5143 9.27089L34.7065 9.27548L34.7106 6.80162L32.5184 6.79703Z" fill="#939598"/>
    <path d="M33.2084 8.35735L33.2043 10.8312L35.3965 10.8358L35.4006 8.36194L33.2084 8.35735Z" fill="#939598"/>
    <path d="M33.7325 10.2119L33.7285 12.6858L35.9207 12.6904L35.9247 10.2165L33.7325 10.2119Z" fill="#939598"/>
    <path d="M34.3064 11.6086L34.3023 14.0825L36.4945 14.087L36.4986 11.6132L34.3064 11.6086Z" fill="#939598"/>
    <path d="M34.8319 13.1982L34.8278 15.672L37.02 15.6766L37.0241 13.2028L34.8319 13.1982Z" fill="#939598"/>
    <path d="M35.405 14.4382L35.4009 16.9121L37.5931 16.9167L37.5972 14.4428L35.405 14.4382Z" fill="#939598"/>
    <path d="M35.9286 16.2977L35.9245 18.7716L38.1167 18.7762L38.1208 16.3023L35.9286 16.2977Z" fill="#939598"/>
    <path d="M36.5025 17.9178L36.4984 20.3917L38.6906 20.3963L38.6947 17.9224L36.5025 17.9178Z" fill="#939598"/>
    <path d="M37.2081 19.7476L37.204 22.2215L39.3962 22.2261L39.4003 19.7522L37.2081 19.7476Z" fill="#939598"/>
    <path d="M37.8726 20.9867L37.8686 23.4605L40.0608 23.4651L40.0648 20.9913L37.8726 20.9867Z" fill="#939598"/>
    <path d="M0.485087 18.976L0.481018 21.4499L2.67322 21.4545L2.67729 18.9806L0.485087 18.976Z" fill="#939598"/>
    <path d="M24.9335 37.5219L24.9294 39.9958L26.9941 40.0001L26.9981 37.5262L24.9335 37.5219Z" fill="#A97C50"/>
    <path d="M23.8997 36.5346L23.8956 39.0084L25.9603 39.0127L25.9643 36.5389L23.8997 36.5346Z" fill="#A97C50"/>
    <path d="M22.8641 35.4299L22.86 37.9038L24.9246 37.9081L24.9287 35.4343L22.8641 35.4299Z" fill="#A97C50"/>
    <path d="M21.8306 34.3094L21.8265 36.7833L23.8912 36.7876L23.8952 34.3137L21.8306 34.3094Z" fill="#A97C50"/>
    <path d="M20.7964 33.0702L20.7924 35.544L22.857 35.5483L22.8611 33.0745L20.7964 33.0702Z" fill="#A97C50"/>
    <path d="M19.6359 32.1269L19.6318 34.6008L21.824 34.6054L21.8281 32.1315L19.6359 32.1269Z" fill="#A97C50"/>
    <path d="M20.0926 29.7311L20.0885 32.2049L22.2807 32.2095L22.2848 29.7357L20.0926 29.7311Z" fill="#A97C50"/>
    <path d="M20.7332 28.4925L20.7291 30.9664L22.9213 30.971L22.9254 28.4971L20.7332 28.4925Z" fill="#A97C50"/>
    <path d="M21.7043 27.5043L21.7003 29.9781L23.8925 29.9827L23.8965 27.5089L21.7043 27.5043Z" fill="#A97C50"/>
    <path d="M17.4404 32.1277L17.4363 34.6015L19.6285 34.6061L19.6326 32.1322L17.4404 32.1277Z" fill="#A97C50"/>
    <path d="M16.2657 33.3663L16.2617 35.8401L18.4539 35.8447L18.4579 33.3708L16.2657 33.3663Z" fill="#A97C50"/>
    <path d="M15.4686 34.3993L15.4645 36.8732L17.6567 36.8778L17.6607 34.4039L15.4686 34.3993Z" fill="#A97C50"/>
    <path d="M14.4337 35.2943L14.4296 37.7682L16.6218 37.7728L16.6259 35.2989L14.4337 35.2943Z" fill="#A97C50"/>
    <path d="M13.4581 36.2819L13.454 38.7558L15.6462 38.7603L15.6503 36.2865L13.4581 36.2819Z" fill="#A97C50"/>
    <path d="M12.6038 37.344L12.5997 39.8179L14.7919 39.8224L14.796 37.3486L12.6038 37.344Z" fill="#A97C50"/>
    <path d="M22.8022 26.2656L22.7982 28.7394L24.9904 28.744L24.9944 26.2702L22.8022 26.2656Z" fill="#A97C50"/>
    <path d="M23.8983 25.0247L23.8942 27.4985L26.0864 27.5031L26.0905 25.0293L23.8983 25.0247Z" fill="#A97C50"/>
    <path d="M23.9963 25.2794L23.9922 27.7532L26.1844 27.7578L26.1885 25.284L23.9963 25.2794Z" fill="#A97C50"/>
    <path d="M24.6816 24.3377L24.6775 26.8115L26.8697 26.8161L26.8738 24.3423L24.6816 24.3377Z" fill="#A97C50"/>
    <path d="M20.8074 3.53812L18.6152 3.54271L18.6192 6.01657L20.8114 6.01198L20.8074 3.53812Z" fill="#660F19"/>
    <path d="M19.2549 3.96738L17.0627 3.97197L17.0668 6.44583L19.259 6.44124L19.2549 3.96738Z" fill="#660F19"/>
    <path d="M17.9242 4.77725L15.732 4.78185L15.7361 7.25571L17.9283 7.25111L17.9242 4.77725Z" fill="#660F19"/>
    <path d="M16.5367 5.55837L14.3445 5.56296L14.3486 8.03682L16.5408 8.03223L16.5367 5.55837Z" fill="#660F19"/>
    <path d="M15.0216 6.02085L12.8294 6.02544L12.8335 8.4993L15.0257 8.49471L15.0216 6.02085Z" fill="#660F19"/>
    <path d="M13.1514 6.79752L10.9592 6.80211L10.9632 9.27597L13.1554 9.27138L13.1514 6.79752Z" fill="#660F19"/>
    <path d="M11.4399 7.60739L9.24768 7.61198L9.25176 10.0858L11.444 10.0813L11.4399 7.60739Z" fill="#660F19"/>
    <path d="M10.0799 8.49912L7.8877 8.50371L7.89177 10.9776L10.084 10.973L10.0799 8.49912Z" fill="#660F19"/>
    <path d="M9.4538 10.2118L7.2616 10.2164L7.26567 12.6903L9.45787 12.6857L9.4538 10.2118Z" fill="#660F19"/>
    <path d="M8.81207 11.4509L6.61987 11.4555L6.62395 13.9294L8.81615 13.9248L8.81207 11.4509Z" fill="#660F19"/>
    <path d="M8.01916 13.199L5.82697 13.2036L5.83104 15.6775L8.02324 15.6729L8.01916 13.199Z" fill="#660F19"/>
    <path d="M7.3067 15.2702L5.1145 15.2748L5.11858 17.7486L7.31078 17.744L7.3067 15.2702Z" fill="#660F19"/>
    <path d="M6.61585 17.3458L4.42365 17.3503L4.42772 19.8242L6.61992 19.8196L6.61585 17.3458Z" fill="#660F19"/>
    <path d="M5.823 19.5961L3.6308 19.6007L3.63487 22.0746L5.82707 22.07L5.823 19.5961Z" fill="#660F19"/>
    <path d="M4.99091 21.6673L5.02034 39.8186L2.82814 39.8252L2.79871 21.6717L4.99091 21.6673Z" fill="#660F19"/>
</svg>

<svg viewBox="0 0 41 40" fill="none" xmlns="http://www.w3.org/2000/svg"><path d="M36.274 39.823h-7.81c-.008-5.056-.016-10.112-.028-15.17-.004-1.35-.137-1.503-1.352-1.503-4.78-.005-9.556-.002-14.335 0-1.346 0-1.446.115-1.448 1.613l-.024 15.06H3.466c-.175-.562-.495-1.122-.499-1.686-.04-4.766-.029-9.533-.013-14.299.002-.463.072-.956.225-1.38 1.55-4.302 3.115-8.6 4.715-12.879.155-.412.53-.836.894-1.013A548.4 548.4 0 0 1 19.19 3.624c.361-.165.891-.141 1.258.027a525.906 525.906 0 0 1 10.32 4.88c.392.19.8.636.967 1.077 1.615 4.273 3.187 8.565 4.751 12.86.17.463.293.983.295 1.476.021 4.767.03 9.533-.01 14.3-.006.528-.324 1.052-.497 1.579zM19.897 9.88c-1.464 0-2.926.018-4.39-.007-.701-.01-1.011.326-1.007 1.111.011 2.162.015 4.326-.002 6.488-.006.796.3 1.117.997 1.115 2.926-.015 5.852-.015 8.778 0 .724.005.964-.385.956-1.155a314.026 314.026 0 0 1 0-6.38c.008-.833-.285-1.199-1.042-1.18-1.429.03-2.86.006-4.29.008z" fill="#8C1821"/><path d="M11.277 39.823c.008-5.02.014-10.04.024-15.06.002-1.498.102-1.613 1.448-1.613 4.779-.002 9.556-.002 14.335 0 1.215 0 1.348.152 1.352 1.502.012 5.056.018 10.113.027 15.171h-1.952c-2.194-2.261-4.389-4.52-6.642-6.844-2.253 2.321-4.445 4.583-6.639 6.844h-1.953zm15.754-1.73v-12.41l-6.076 6.205 6.076 6.205zm-8.247-6.203c-2.045-2.084-4.002-4.08-6.06-6.18v12.365c2.064-2.109 4.01-4.092 6.06-6.185zm6.99-7.154H13.957c2.059 2.102 3.972 4.059 5.917 6.043l5.902-6.043z" fill="#A97C50"/><path d="M39.398 22.65c-1.034.471-1.244.396-1.686-.795-1.603-4.319-3.2-8.643-4.77-12.977-.303-.837-.748-1.36-1.51-1.706-3.548-1.62-7.061-3.342-10.621-4.935-.564-.252-1.372-.241-1.938.013A308.9 308.9 0 0 0 8.185 7.29c-.579.287-1.16.967-1.41 1.626-1.608 4.198-3.123 8.442-4.668 12.67-.074.204-.141.41-.22.611-.214.547-.55 1.064-1.087.66-.25-.189-.365-.861-.3-1.264.102-.635.406-1.228.63-1.836C2.537 15.899 3.966 12.05 5.345 8.18c.428-1.202 1.115-2 2.179-2.49A852.21 852.21 0 0 0 18.398.584c.996-.476 1.92-.476 2.913-.004 3.648 1.735 7.307 3.438 10.969 5.133.993.46 1.648 1.22 2.055 2.341 1.519 4.2 3.067 8.389 4.614 12.578.12.323.298.615.45.922v1.096z" fill="#939598"/><path d="m18.023 29.73-.004 2.474 2.065.005.004-2.474-2.065-.005z" fill="#A97C50"/><path d="m16.99 28.743-.005 2.474 2.065.004.004-2.474-2.065-.004z" fill="#A97C50"/><path d="m15.956 27.639-.004 2.473 2.064.005.005-2.474-2.065-.004z" fill="#A97C50"/><path d="m14.92 26.518-.004 2.474 2.065.004.004-2.474-2.065-.004z" fill="#A97C50"/><path d="m13.886 25.279-.004 2.474 2.065.004.004-2.474-2.065-.004z" fill="#A97C50"/><path d="m12.726 24.338-.004 2.474 2.192.004.004-2.474-2.192-.004z" fill="#A97C50"/><path d="M.004 20.647 0 23.12l2.192.005.004-2.474-2.192-.004zM1.103 17.476l-.005 2.473 2.193.005.004-2.474-2.192-.005z" fill="#939598"/><path d="m1.844 15.887-.004 2.474 2.192.004.004-2.473-2.192-.005z" fill="#939598"/><path d="m2.509 14.227-.004 2.474 2.192.005.004-2.474-2.192-.005z" fill="#939598"/><path d="m3.068 12.31-.004 2.473 2.192.005.004-2.474-2.192-.005z" fill="#939598"/><path d="m3.607 10.54-.005 2.473 2.193.005.004-2.474-2.192-.005z" fill="#939598"/><path d="m4.326 8.73-.004 2.473 2.192.005.004-2.474-2.192-.004z" fill="#939598"/><path d="m5.151 7.26-.004 2.474 2.192.005.004-2.474-2.192-.005z" fill="#939598"/><path d="M5.803 5.818 5.799 8.29l2.192.005.004-2.474-2.192-.004z" fill="#939598"/><path d="m6.9 5.128-.004 2.474 2.192.005.004-2.474L6.9 5.128z" fill="#939598"/><path d="M8.283 4.318 8.28 6.792l2.192.005.004-2.474-2.192-.005z" fill="#939598"/><path d="M9.613 3.888 9.61 6.362l2.193.004.004-2.474-2.193-.004z" fill="#939598"/><path d="m11.023 3.079-.004 2.474 2.192.004.004-2.474-2.192-.004z" fill="#939598"/><path d="m12.307 2.479-.004 2.474 2.192.004.004-2.473-2.192-.005z" fill="#939598"/><path d="m13.717 1.7-.004 2.474 2.193.004.004-2.473-2.193-.005z" fill="#939598"/><path d="m14.94 1.24-.004 2.473 2.193.005.004-2.474-2.192-.005z" fill="#939598"/><path d="m16.297.6-.004 2.474 2.192.004.004-2.473L16.297.6z" fill="#939598"/><path d="m17.92 0-.004 2.473 2.192.005.004-2.474L17.92 0z" fill="#939598"/><path d="m19.869.222-.005 2.474 2.193.004.004-2.474-2.192-.004z" fill="#939598"/><path d="m21.092.882-.004 2.474 2.192.005.004-2.474-2.192-.005z" fill="#939598"/><path d="m20.57 3.97-.005 2.473 2.192.005.005-2.474-2.193-.005z" fill="#660F19"/><path d="m21.9 4.779-.004 2.474 2.192.004.004-2.473-2.192-.005z" fill="#660F19"/><path d="m23.287 5.558-.004 2.473 2.192.005.004-2.474-2.192-.004z" fill="#660F19"/><path d="m24.803 6.021-.004 2.474 2.192.005.004-2.474-2.192-.005z" fill="#660F19"/><path d="m26.674 6.797-.004 2.474 2.192.005.004-2.474-2.192-.005z" fill="#660F19"/><path d="m28.383 7.607-.004 2.474 2.192.004.005-2.474-2.193-.004z" fill="#660F19"/><path d="m29.745 8.499-.004 2.473 2.192.005.004-2.474-2.192-.004z" fill="#660F19"/><path d="m30.37 10.21-.005 2.474 2.193.005.004-2.474-2.192-.004z" fill="#660F19"/><path d="m31.013 11.45-.005 2.474 2.193.004.004-2.474-2.192-.004z" fill="#660F19"/><path d="m31.807 13.2-.004 2.473 2.192.005.004-2.474-2.192-.005z" fill="#660F19"/><path d="m32.517 15.27-.004 2.475 2.193.004.004-2.474-2.193-.004z" fill="#660F19"/><path d="m33.209 17.347-.004 2.474 2.192.005.004-2.474-2.192-.005z" fill="#660F19"/><path d="m34 19.597-.003 2.474 2.192.005.004-2.474-2.192-.005z" fill="#660F19"/><path d="m34.834 21.667-.03 18.152 2.19.006.03-18.153-2.19-.005z" fill="#660F19"/><path d="m22.608 1.24-.004 2.473 2.192.005.005-2.474-2.193-.005z" fill="#939598"/><path d="m23.705 2.122-.004 2.473 2.192.005.005-2.474-2.193-.004z" fill="#939598"/><path d="m25.408 2.478-.004 2.474 2.192.005.005-2.474-2.193-.005z" fill="#939598"/><path d="m26.819 3.339-.004 2.474 2.192.004.004-2.474-2.192-.004z" fill="#939598"/><path d="m28.174 3.969-.004 2.474 2.192.004.004-2.473-2.192-.005z" fill="#939598"/><path d="m29.744 4.778-.004 2.474 2.192.004.004-2.474-2.192-.004z" fill="#939598"/><path d="m31.419 5.557-.004 2.474 2.192.004.004-2.474-2.192-.004z" fill="#939598"/><path d="m32.518 6.797-.004 2.474 2.192.004.005-2.473-2.193-.005z" fill="#939598"/><path d="m33.208 8.357-.004 2.474 2.193.005.004-2.474-2.193-.005z" fill="#939598"/><path d="m33.733 10.212-.005 2.474 2.193.004.004-2.473-2.192-.005z" fill="#939598"/><path d="m34.306 11.609-.004 2.473 2.193.005.004-2.474-2.193-.004z" fill="#939598"/><path d="m34.832 13.198-.004 2.474 2.192.005.004-2.474-2.192-.005z" fill="#939598"/><path d="m35.405 14.438-.004 2.474 2.192.005.004-2.474-2.192-.005z" fill="#939598"/><path d="m35.929 16.298-.005 2.474 2.193.004.004-2.474-2.192-.004z" fill="#939598"/><path d="m36.502 17.918-.004 2.474 2.193.004.004-2.474-2.193-.004z" fill="#939598"/><path d="m37.208 19.748-.004 2.473 2.192.005.004-2.474-2.192-.004z" fill="#939598"/><path d="m37.873 20.987-.004 2.474 2.192.004.004-2.474-2.192-.004zM.485 18.976.481 21.45l2.192.005.004-2.474-2.192-.005z" fill="#939598"/><path d="m24.933 37.522-.004 2.474 2.065.004.004-2.474-2.065-.004z" fill="#A97C50"/><path d="m23.9 36.535-.004 2.473 2.064.005.004-2.474-2.064-.004z" fill="#A97C50"/><path d="m22.864 35.43-.004 2.474 2.065.004.004-2.474-2.065-.004z" fill="#A97C50"/><path d="m21.83 34.31-.003 2.473 2.064.005.004-2.474-2.064-.005z" fill="#A97C50"/><path d="m20.796 33.07-.004 2.474 2.065.004.004-2.474-2.065-.004z" fill="#A97C50"/><path d="m19.636 32.127-.004 2.474 2.192.004.004-2.473-2.192-.005z" fill="#A97C50"/><path d="m20.093 29.731-.005 2.474 2.193.005.004-2.474-2.192-.005z" fill="#A97C50"/><path d="m20.733 28.492-.004 2.474 2.192.005.004-2.474-2.192-.005z" fill="#A97C50"/><path d="m21.704 27.504-.004 2.474 2.192.005.005-2.474-2.193-.005zM17.44 32.128l-.004 2.474 2.192.004.005-2.474-2.193-.004z" fill="#A97C50"/><path d="m16.266 33.366-.004 2.474 2.192.005.004-2.474-2.192-.005z" fill="#A97C50"/><path d="m15.469 34.4-.005 2.473 2.193.005.004-2.474-2.192-.005z" fill="#A97C50"/><path d="m14.434 35.294-.004 2.474 2.192.005.004-2.474-2.192-.005z" fill="#A97C50"/><path d="m13.458 36.282-.004 2.474 2.192.004.004-2.474-2.192-.004z" fill="#A97C50"/><path d="m12.604 37.344-.004 2.474 2.192.004.004-2.473-2.192-.005zM22.802 26.266l-.004 2.473 2.192.005.004-2.474-2.192-.004z" fill="#A97C50"/><path d="m23.898 25.025-.004 2.474 2.192.004.005-2.474-2.193-.004z" fill="#A97C50"/><path d="m23.996 25.28-.004 2.473 2.192.005.005-2.474-2.193-.005z" fill="#A97C50"/><path d="m24.682 24.338-.005 2.473 2.193.005.004-2.474-2.192-.004z" fill="#A97C50"/><path d="m20.807 3.538-2.192.005.004 2.474 2.192-.005-.004-2.474z" fill="#660F19"/><path d="m19.255 3.967-2.192.005.004 2.474 2.192-.005-.004-2.474z" fill="#660F19"/><path d="m17.924 4.777-2.192.005.004 2.474 2.192-.005-.004-2.474z" fill="#660F19"/><path d="m16.537 5.558-2.192.005.004 2.474 2.192-.005-.004-2.474z" fill="#660F19"/><path d="m15.022 6.02-2.193.005.005 2.474 2.192-.004-.004-2.474z" fill="#660F19"/><path d="m13.151 6.798-2.192.004.004 2.474 2.192-.005-.004-2.473z" fill="#660F19"/><path d="m11.44 7.607-2.192.005.004 2.474 2.192-.005-.004-2.474z" fill="#660F19"/><path d="m10.08 8.5-2.192.004.004 2.474 2.192-.005-.004-2.474z" fill="#660F19"/><path d="m9.454 10.212-2.192.004.004 2.474 2.192-.004-.004-2.474z" fill="#660F19"/><path d="m8.812 11.45-2.192.006.004 2.473 2.192-.004-.004-2.474z" fill="#660F19"/><path d="m8.02 13.199-2.193.005.004 2.473 2.192-.004-.004-2.474z" fill="#660F19"/><path d="m7.307 15.27-2.193.005.005 2.474 2.192-.005-.004-2.474z" fill="#660F19"/><path d="m6.616 17.346-2.192.004.004 2.474 2.192-.004-.004-2.474z" fill="#660F19"/><path d="m5.823 19.596-2.192.005.004 2.474 2.192-.005-.004-2.474z" fill="#660F19"/><path d="m4.99 21.667.03 18.152-2.192.006-.03-18.153 2.193-.005z" fill="#660F19"/></svg>
